48x48/status/notification-display-brightness-medium.svg

<svg xmlns="http://www.w3.org/2000/svg" width="48" height="48" version="1.1">
 <rect fill="#c4c4c4" width="32" height="24" x="-42" y="-36" rx="2" ry="2" transform="matrix(0,-1,-1,0,0,0)"/>
 <rect fill="#c4c4c4" width="32" height="40" x="-38" y="-44" rx="2" ry="2" transform="matrix(0,-1,-1,0,0,0)"/>
 <rect fill="#5d5d5d" width="26" height="34" x="-35" y="-41" rx="0" ry="0" transform="matrix(0,-1,-1,0,0,0)"/>
 <path fill="#fff" opacity=".2" d="m6 6c-1.108 0-2 0.892-2 2v1c0-1.108 0.892-2 2-2h36c1.108 0 2 0.892 2 2v-1c0-1.108-0.892-2-2-2h-36z"/>
 <path opacity=".2" d="m12 40v1c0 1.108 0.892 2 2 2h20c1.108 0 2-0.892 2-2v-1c0 1.108-0.892 2-2 2h-20c-1.108 0-2-0.892-2-2z"/>
 <path opacity=".2" d="m4 36v1c0 1.108 0.892 2 2 2h36c1.108 0 2-0.892 2-2v-1c0 1.108-0.892 2-2 2h-36c-1.108 0-2-0.892-2-2z"/>
 <path opacity=".2" d="m24 11.685-3.3145 3.3145h-4.6855v4.6855l-3.3145 3.3145 3.314 3.314v4.6855h4.6855l3.314 3.314 3.314-3.314h4.686v-4.686l3.314-3.314-3.314-3.315v-4.6855h-4.6855l-3.314-3.315zm0 5.3145c3.3137 0 6 2.6863 6 6s-2.6863 6-6 6v-12z"/>
 <path fill="#c4c4c4" d="m24 10.686l-3.314 3.314h-4.686v4.686l-3.314 3.314 3.314 3.314v4.686h4.686l3.314 3.314 3.314-3.314h4.686v-4.686l3.314-3.314-3.314-3.314v-4.686h-4.686l-3.314-3.314zm0 5.314c3.314 0 6 2.686 6 6s-2.686 6-6 6v-12z"/>
</svg>

<svg xmlns="http://www.w3.org/2000/svg" width="48" height="48"><rect fill="#c4c4c4" width="32" height="24" x="-42" y="-36" rx="2" ry="2" transform="matrix(0 -1 -1 0 0 0)"/><rect fill="#c4c4c4" width="32" height="40" x="-38" y="-44" rx="2" ry="2" transform="matrix(0 -1 -1 0 0 0)"/><rect fill="#5d5d5d" width="26" height="34" x="-35" y="-41" rx="0" ry="0" transform="matrix(0 -1 -1 0 0 0)"/><path fill="#fff" opacity=".2" d="M6 6c-1.108 0-2 .892-2 2v1c0-1.108.892-2 2-2h36c1.108 0 2 .892 2 2V8c0-1.108-.892-2-2-2H6z"/><path opacity=".2" d="M12 40v1c0 1.108.892 2 2 2h20c1.108 0 2-.892 2-2v-1c0 1.108-.892 2-2 2H14c-1.108 0-2-.892-2-2zM4 36v1c0 1.108.892 2 2 2h36c1.108 0 2-.892 2-2v-1c0 1.108-.892 2-2 2H6c-1.108 0-2-.892-2-2zM24 11.685l-3.314 3.314H16v4.686L12.686 23 16 26.314v4.685h4.685l3.314 3.314 3.314-3.314h4.686v-4.686l3.314-3.314-3.314-3.315v-4.686h-4.685L24 11.684zm0 5.314a6 6 0 0 1 0 12V17z"/><path fill="#c4c4c4" d="M24 10.686 20.686 14H16v4.686L12.686 22 16 25.314V30h4.686L24 33.314 27.314 30H32v-4.686L35.314 22 32 18.686V14h-4.686L24 10.686zM24 16a6 6 0 1 1 0 12V16z"/></svg>
